public/assets/edit.svg

<svg xmlns="http://www.w3.org/2000/svg" width="16" height="16" viewBox="0 0 16 16" fill="none">
  <g clip-path="url(#clip0_993_5978)">
    <path fill-rule="evenodd" clip-rule="evenodd" d="M7.96191 0.833374L9.00016 0.833374C9.2763 0.833374 9.50016 1.05723 9.50016 1.33337C9.50016 1.60952 9.2763 1.83337 9.00016 1.83337H8.00016C6.41468 1.83337 5.27587 1.83444 4.40921 1.95095C3.55694 2.06554 3.04313 2.28347 2.66336 2.66324C2.28359 3.04301 2.06566 3.55682 1.95108 4.40909C1.83456 5.27574 1.8335 6.41456 1.8335 8.00004C1.8335 9.58552 1.83456 10.7243 1.95108 11.591C2.06566 12.4433 2.28359 12.9571 2.66336 13.3368C3.04313 13.7166 3.55694 13.9345 4.40921 14.0491C5.27587 14.1656 6.41468 14.1667 8.00016 14.1667C9.58564 14.1667 10.7245 14.1656 11.5911 14.0491C12.4434 13.9345 12.9572 13.7166 13.337 13.3368C13.7167 12.9571 13.9347 12.4433 14.0492 11.591C14.1658 10.7243 14.1668 9.58552 14.1668 8.00004V7.00004C14.1668 6.7239 14.3907 6.50004 14.6668 6.50004C14.943 6.50004 15.1668 6.7239 15.1668 7.00004V8.03829C15.1668 9.57722 15.1668 10.7832 15.0403 11.7242C14.9108 12.6874 14.6406 13.4474 14.0441 14.0439C13.4475 14.6405 12.6875 14.9107 11.7244 15.0402C10.7834 15.1667 9.57734 15.1667 8.03841 15.1667H7.96191C6.42298 15.1667 5.21696 15.1667 4.27597 15.0402C3.31281 14.9107 2.55279 14.6405 1.95625 14.0439C1.35971 13.4474 1.08949 12.6874 0.959994 11.7242C0.833481 10.7832 0.833488 9.57722 0.833496 8.03829V7.96179C0.833488 6.42286 0.833481 5.21684 0.959994 4.27584C1.08949 3.31269 1.35971 2.55267 1.95625 1.95613C2.55279 1.35959 3.31281 1.08936 4.27597 0.959872C5.21696 0.833359 6.42298 0.833366 7.96191 0.833374ZM11.1805 1.51732C12.0924 0.605393 13.571 0.605393 14.4829 1.51732C15.3948 2.42924 15.3948 3.90776 14.4829 4.81969L10.0508 9.25175C9.8033 9.49931 9.64825 9.65438 9.47521 9.78934C9.27142 9.9483 9.05091 10.0846 8.81759 10.1958C8.6195 10.2902 8.41146 10.3595 8.07935 10.4702L6.143 11.1156C5.78551 11.2348 5.39137 11.1418 5.1249 10.8753C4.85844 10.6088 4.7654 10.2147 4.88456 9.8572L5.53001 7.92086C5.64069 7.58874 5.71002 7.3807 5.80443 7.18261C5.91562 6.94929 6.0519 6.72878 6.21086 6.52499C6.34582 6.35195 6.5009 6.1969 6.74846 5.94937L11.1805 1.51732ZM13.7758 2.22442C13.2544 1.70302 12.409 1.70302 11.8876 2.22442L11.6365 2.4755C11.6517 2.53941 11.6729 2.61555 11.7023 2.70048C11.7979 2.97586 11.9786 3.33852 12.3202 3.68004C12.6617 4.02156 13.0243 4.20235 13.2997 4.29789C13.3846 4.32735 13.4608 4.34852 13.5247 4.36366L13.7758 4.11258C14.2972 3.59118 14.2972 2.74582 13.7758 2.22442ZM12.7369 5.15143C12.3929 5.0035 11.9923 4.76635 11.6131 4.38714C11.2339 4.00794 10.9967 3.60725 10.8488 3.26328L7.4785 6.63355C7.20082 6.91122 7.09192 7.02134 6.99937 7.14001C6.88508 7.28653 6.7871 7.44508 6.70715 7.61283C6.64241 7.74868 6.59261 7.89533 6.46843 8.26787L6.1805 9.13166L6.86854 9.8197L7.73233 9.53177C8.10487 9.40759 8.25152 9.35779 8.38737 9.29305C8.55513 9.2131 8.71367 9.11512 8.8602 9.00083C8.97886 8.90828 9.08898 8.79938 9.36666 8.5217L12.7369 5.15143Z" fill="#877EFF"/>
  </g>
  <defs>
    <clipPath id="clip0_993_5978">
      <rect width="16" height="16" fill="white"/>
    </clipPath>
  </defs>
</svg>

<svg xmlns="http://www.w3.org/2000/svg" width="15" height="22" fill="none"><g clip-path="url(#a)"><path fill-rule="evenodd" clip-rule="evenodd" d="M7.962.833H9a.5.5 0 1 1 0 1H8c-1.585 0-2.724.001-3.59.118-.853.115-1.367.332-1.747.712-.38.38-.597.894-.712 1.746-.116.867-.118 2.006-.118 3.591 0 1.586.002 2.724.118 3.591.115.852.333 1.366.712 1.746.38.38.894.598 1.746.712.867.117 2.006.118 3.591.118 1.586 0 2.725-.001 3.591-.118.852-.114 1.366-.332 1.746-.712.38-.38.598-.894.712-1.746.117-.867.118-2.005.118-3.591V7a.5.5 0 0 1 1 0v1.038c0 1.54 0 2.745-.127 3.686-.13.963-.4 1.723-.996 2.32-.597.596-1.357.867-2.32.996-.94.127-2.147.127-3.686.127h-.076c-1.539 0-2.745 0-3.686-.127-.963-.13-1.723-.4-2.32-.996-.596-.597-.867-1.357-.996-2.32-.127-.94-.127-2.147-.127-3.686v-.076c0-1.54 0-2.745.127-3.686.13-.963.4-1.723.996-2.32.597-.596 1.357-.867 2.32-.996C5.217.833 6.423.833 7.962.833Zm3.219.684a2.335 2.335 0 0 1 3.302 3.303L10.05 9.252a6.475 6.475 0 0 1-.576.537 3.558 3.558 0 0 1-.657.407c-.198.094-.407.164-.739.274l-1.936.646a.995.995 0 0 1-1.258-1.259l.645-1.936c.11-.332.18-.54.274-.738.112-.234.248-.454.407-.658.135-.173.29-.328.537-.576l4.433-4.432Zm2.595.707a1.335 1.335 0 0 0-1.888 0l-.252.251a2.583 2.583 0 0 0 .684 1.205 2.583 2.583 0 0 0 1.205.684l.25-.251a1.335 1.335 0 0 0 0-1.889Zm-1.04 2.927a3.596 3.596 0 0 1-1.123-.764c-.38-.38-.616-.78-.764-1.124l-3.37 3.37c-.278.278-.387.388-.48.507a2.558 2.558 0 0 0-.292.473c-.065.136-.114.282-.239.655l-.287.864.688.688.863-.288c.373-.124.52-.174.655-.239.168-.08.327-.178.473-.292.119-.093.229-.202.507-.48l3.37-3.37Z" fill="#877EFF"/></g><defs><clipPath id="a"><path fill="#fff" d="M0 0h16v16H0z"/></clipPath></defs></svg>
